images/icons/replace-icon.svg

<svg height="24" viewBox="0 0 24 24" width="24" xmlns="http://www.w3.org/2000/svg"><path d="m113.84867 100h-3.87872c-.13375 0-.24249-.10875-.24249-.242496v-7.27248c0-.13375.10875-.242496.24249-.242496h3.87872c.13375 0 .2425.10875.2425.242496v7.27248c0 .13375-.10875.242496-.2425.242496zm-.24249-.484992v-6.78752h-3.39376v6.78752zm-8.48496.484992h-3.87872c-.13375 0-.2425-.10875-.2425-.242496v-4.84816c0-.134374.10875-.242496.2425-.242496h3.87872c.13375 0 .24249.108125.24249.242496v4.84816c0 .13375-.10875.242496-.24249.242496zm-.2425-.484992v-4.36368h-3.39376v4.36368zm-1.93936-7.13056v-3.77808c0-2.54368 2.06256-4.60624 4.60624-4.60624s4.60624 2.06256 4.60624 4.60624v1.353744l.79813-.798128c.0944-.09437.24813-.09437.34249 0 .095.095.095.248128 0 .34312l-1.21187 1.211872c-.0944.09437-.24813.09437-.34249 0l-1.2125-1.211872c-.0944-.095-.0944-.248128 0-.34312.095-.09437.24813-.09437.34312 0l.79813.798128v-1.353744c0-2.27632-1.84496-4.12128-4.12128-4.12128s-4.12128 1.84496-4.12128 4.12128v3.77808l.79813-.798128c.095-.095.24812-.095.34312 0 .0944.09437.0944.248128 0 .342496l-1.2125 1.212496c-.0944.09437-.24813.09437-.3425 0l-1.21187-1.212496c-.095-.09437-.095-.248128 0-.342496.0944-.095.24813-.095.3425 0z" fill-rule="evenodd" opacity=".5" transform="matrix(1.4957667 0 0 1.4957667 -148.7673517 -125.5766698)"/></svg>

<svg width="14px" height="16px" viewBox="0 0 14 16" version="1.1" xmlns="http://www.w3.org/2000/svg" xmlns:xlink="http://www.w3.org/1999/xlink">
    <!-- Generator: Sketch 50.2 (55047) - http://www.bohemiancoding.com/sketch -->
    <desc>Created with Sketch.</desc>
    <defs></defs>
    <g id="Wireframes---Desktop" stroke="none" stroke-width="1" fill="none" fill-rule="evenodd" opacity="0.5">
        <g id="Dash---My-Files---Estate-Planning---Home-Management-(grid---selected)" transform="translate(-702.000000, -418.000000)" fill="#000000">
            <g id="Group-6" transform="translate(601.000000, 334.000000)">
                <path d="M113.848672,100 L109.969952,100 C109.836202,100 109.727456,99.8912496 109.727456,99.757504 L109.727456,92.485024 C109.727456,92.3512736 109.836207,92.242528 109.969952,92.242528 L113.848672,92.242528 C113.982423,92.242528 114.091168,92.3512784 114.091168,92.485024 L114.091168,99.757504 C114.091168,99.8912544 113.982418,100 113.848672,100 Z M113.606176,99.515008 L113.606176,92.727488 L110.212416,92.727488 L110.212416,99.515008 L113.606176,99.515008 Z M105.121216,100 L101.242496,100 C101.108746,100 101,99.8912496 101,99.757504 L101,94.909344 C101,94.7749696 101.10875,94.666848 101.242496,94.666848 L105.121216,94.666848 C105.254967,94.666848 105.363712,94.7749728 105.363712,94.909344 L105.363712,99.757504 C105.363712,99.8912544 105.254962,100 105.121216,100 Z M104.87872,99.515008 L104.87872,95.151328 L101.48496,95.151328 L101.48496,99.515008 L104.87872,99.515008 Z M102.93936,92.384448 L102.93936,88.606368 C102.93936,86.062688 105.00192,84.000128 107.5456,84.000128 C110.08928,84.000128 112.15184,86.062688 112.15184,88.606368 L112.15184,89.960112 L112.949968,89.161984 C113.044343,89.0676096 113.198096,89.0676096 113.292464,89.161984 C113.387464,89.256984 113.387464,89.410112 113.292464,89.505104 L112.080592,90.716976 C111.986218,90.8113504 111.832464,90.8113504 111.738096,90.716976 L110.5256,89.505104 C110.431226,89.410104 110.431226,89.256976 110.5256,89.161984 C110.6206,89.0676096 110.773728,89.0676096 110.86872,89.161984 L111.666848,89.960112 L111.666848,88.606368 C111.666848,86.330048 109.821888,84.485088 107.545568,84.485088 C105.269248,84.485088 103.424288,86.330048 103.424288,88.606368 L103.424288,92.384448 L104.222416,91.58632 C104.317416,91.49132 104.470544,91.49132 104.565536,91.58632 C104.659911,91.6806944 104.659911,91.834448 104.565536,91.928816 L103.35304,93.141312 C103.258666,93.2356864 103.104912,93.2356864 103.010544,93.141312 L101.798672,91.928816 C101.703672,91.8344416 101.703672,91.680688 101.798672,91.58632 C101.893047,91.49132 102.0468,91.49132 102.141168,91.58632 L102.93936,92.384448 Z" id="Page-1"></path>
            </g>
        </g>
    </g>
</svg>
